X: 1
T: Orange Rogue, The
M: 6/8
L: 1/8
R: jig
K: Emin
|:B|ege dBA|GEF G2 A|BGB def|g2 b agf|
ege dBA|GEF G2 A|BGB def|e3 e3 :|
|gfe agf|g2 B B2 f |gfe agf| g2 B B2 f |
g2 b agf|gfe fed|B2 B def|g2 b agf |
